CRM-system/src/assets/DarkMode.svg

<svg width="20" height="20" viewBox="0 0 20 20" fill="none" xmlns="http://www.w3.org/2000/svg">
<path d="M10.0483 16.6663C8.19664 16.6663 6.62247 16.018 5.3258 14.7213C4.02914 13.4247 3.38108 11.8508 3.38164 9.99967C3.38164 8.62745 3.77414 7.36772 4.55914 6.2205C5.34469 5.07217 6.45858 4.24634 7.9008 3.743C8.0708 3.68356 8.21969 3.668 8.34747 3.69634C8.47525 3.72467 8.58108 3.77995 8.66497 3.86217C8.74886 3.94439 8.80219 4.04995 8.82497 4.17884C8.84719 4.30828 8.82969 4.44411 8.77247 4.58634C8.66469 4.85134 8.58636 5.12106 8.53747 5.3955C8.48858 5.66995 8.46442 5.95467 8.46497 6.24967C8.46497 7.73467 8.98247 8.99495 10.0175 10.0305C11.053 11.0655 12.3133 11.583 13.7983 11.583C14.1861 11.583 14.5408 11.5419 14.8625 11.4597C15.1847 11.3774 15.4591 11.3108 15.6858 11.2597C15.8069 11.2374 15.9177 11.2402 16.0183 11.268C16.1189 11.2958 16.2 11.3447 16.2616 11.4147C16.3255 11.4841 16.3689 11.5697 16.3916 11.6713C16.4144 11.773 16.4014 11.8888 16.3525 12.0188C15.9552 13.3799 15.1766 14.4947 14.0166 15.363C12.8566 16.2313 11.5339 16.6658 10.0483 16.6663Z" fill="white"/>
</svg>

<svg xmlns="http://www.w3.org/2000/svg" width="20" height="20" fill="none"><path fill="#fff" d="M10.048 16.666c-1.851 0-3.426-.648-4.722-1.945C4.029 13.425 3.38 11.851 3.382 10a6.55 6.55 0 0 1 1.177-3.78c.786-1.148 1.9-1.974 3.342-2.477a.82.82 0 0 1 .446-.047.64.64 0 0 1 .318.166.569.569 0 0 1 .16.317.743.743 0 0 1-.053.407 4.01 4.01 0 0 0-.235.81c-.048.274-.073.559-.072.854 0 1.485.517 2.745 1.553 3.78 1.035 1.036 2.295 1.553 3.78 1.553.388 0 .743-.041 1.065-.123.322-.083.596-.15.823-.2a.737.737 0 0 1 .332.008c.1.028.182.077.244.147.064.07.107.155.13.256a.608.608 0 0 1-.04.348c-.397 1.36-1.175 2.476-2.335 3.344-1.16.868-2.483 1.303-3.969 1.303Z"/></svg>
